X:67
T:Ship Hornpipe. ThoH.067, The
Q:1/2=80
M:C|
L:1/8
B:Thompson's Compleat Collection of 120 Favourite Hornpipes.
Z:Village Music Project, Simon Wilson 2016
O:England.
K:G
G2|DGA2DA|BdGB AFED|G2BGTE2cA|BGDFG4:||:gdec dBAG|gdec dBAG|
cAGF dBAG|edTcB AcBA|G2DGA2DA|BdGB AFTED|G2BGTE2cA|BGDFG4:|

